public/img/tech-stack/swr.svg

<svg xmlns="http://www.w3.org/2000/svg" fill="none" viewBox="0 0 291 69"><path fill="#fff" d="M0 36.53c.07 17.6 14.4 32.01 32.01 32.01a32.0502 32.0502 0 0 0 32.01-32V32a13.1997 13.1997 0 0 1 8.7824-12.3706A13.2006 13.2006 0 0 1 87.42 23.69h20.7A32.0702 32.0702 0 0 0 77.2 0a32.0498 32.0498 0 0 0-32 32.01v4.52A13.1998 13.1998 0 0 1 32 49.71a13.2 13.2 0 0 1-13.18-13.18 3.7691 3.7691 0 0 0-1.1042-2.6658A3.7689 3.7689 0 0 0 15.05 32.76H3.76A3.7699 3.7699 0 0 0 0 36.53Zm122.49 32.01a32.1398 32.1398 0 0 1-30.89-23.7h20.67a13.1593 13.1593 0 0 0 14.639 4.1369 13.1566 13.1566 0 0 0 6.36-4.8244 13.1616 13.1616 0 0 0 2.401-7.6125V32a32.047 32.047 0 0 1 9.391-22.6163C151.061 3.385 159.195.0106 167.68 0c17.43 0 31.64 14 32 31.33l.1 5.2a13.2036 13.2036 0 0 0 2.436 7.573 13.2035 13.2035 0 0 0 6.346 4.7976 13.2026 13.2026 0 0 0 7.951.2795 13.1984 13.1984 0 0 0 6.667-4.3401h20.7a32.07 32.07 0 0 1-30.91 23.7c-17.61 0-31.94-14.42-32.01-32l-.1-4.7v-.2a13.1992 13.1992 0 0 0-3.994-9.0757 13.2017 13.2017 0 0 0-9.186-3.7343 13.201 13.201 0 0 0-9.314 3.8662A13.201 13.201 0 0 0 154.5 32.01v4.52a32.0505 32.0505 0 0 1-9.387 22.6228A32.0518 32.0518 0 0 1 122.49 68.54ZM247.94 23.7a13.1594 13.1594 0 0 1 14.644-4.1352 13.1556 13.1556 0 0 1 6.359 4.8288 13.1568 13.1568 0 0 1 2.397 7.6164c0 .4951.098.9853.287 1.4427.189.4574.467.873.817 1.2231.35.3501.766.6278 1.223.8172.458.1895.948.287 1.443.287h11.3a3.7696 3.7696 0 0 0 2.659-1.1077 3.77 3.77 0 0 0 1.101-2.6623 32.0505 32.0505 0 0 0-9.387-22.6228A32.0515 32.0515 0 0 0 258.16 0a32.069 32.069 0 0 0-19.471 6.6169A32.073 32.073 0 0 0 227.24 23.7h20.7Z"/></svg>

<svg width="291" height="69" viewBox="0 0 291 69" fill="none" xmlns="http://www.w3.org/2000/svg">
<path d="M0 36.53C0.07 54.13 14.4 68.54 32.01 68.54C40.4946 68.5294 48.6288 65.1549 54.6293 59.1563C60.6297 53.1578 64.0068 45.0246 64.02 36.54V32C64.034 29.2852 64.8849 26.6407 66.4565 24.427C68.0281 22.2132 70.2441 20.538 72.8024 19.6294C75.3608 18.7209 78.137 18.6233 80.7528 19.3499C83.3687 20.0766 85.6968 21.5921 87.42 23.69H108.12C106.281 16.8951 102.257 10.8942 96.6687 6.61293C91.0808 2.33165 84.2394 0.00785565 77.2 0C68.7154 0.0132299 60.5822 3.39027 54.5837 9.39073C48.5851 15.3912 45.2106 23.5254 45.2 32.01V36.53C45.1947 40.0274 43.8017 43.3797 41.3267 45.8509C38.8518 48.322 35.4974 49.71 32 49.71C28.5061 49.7047 25.1568 48.3144 22.6862 45.8438C20.2156 43.3732 18.8253 40.0239 18.82 36.53C18.82 36.0349 18.7225 35.5447 18.533 35.0873C18.3436 34.6299 18.0659 34.2143 17.7158 33.8642C17.3657 33.5141 16.9501 33.2364 16.4927 33.047C16.0353 32.8575 15.5451 32.76 15.05 32.76H3.76C2.76187 32.7626 1.80552 33.161 1.10067 33.8677C0.395819 34.5745 -3.51136e-06 35.5319 0 36.53H0ZM122.49 68.54C115.457 68.5133 108.628 66.1806 103.048 61.8997C97.4683 57.6188 93.4467 51.6259 91.6 44.84H112.27C113.982 46.9603 116.309 48.497 118.931 49.238C121.554 49.9791 124.341 49.8878 126.909 48.9769C129.478 48.0659 131.7 46.3803 133.269 44.1525C134.838 41.9248 135.677 39.2649 135.67 36.54V32C135.683 23.5154 139.06 15.3822 145.061 9.38366C151.061 3.38508 159.195 0.0105789 167.68 0C185.11 0 199.32 14 199.68 31.33L199.78 36.53C199.794 39.2448 200.645 41.8893 202.216 44.103C203.788 46.3168 206.004 47.992 208.562 48.9006C211.121 49.8091 213.897 49.9067 216.513 49.1801C219.129 48.4534 221.457 46.9379 223.18 44.84H243.88C242.043 51.6351 238.021 57.637 232.435 61.9201C226.849 66.2031 220.009 68.5294 212.97 68.54C195.36 68.54 181.03 54.12 180.96 36.54L180.86 31.84V31.64C180.759 28.2106 179.326 24.9555 176.866 22.5643C174.405 20.1731 171.111 18.8337 167.68 18.83C164.186 18.8353 160.837 20.2256 158.366 22.6962C155.896 25.1668 154.505 28.5161 154.5 32.01V36.53C154.489 45.0163 151.114 53.1521 145.113 59.1528C139.112 65.1535 130.976 68.5294 122.49 68.54V68.54ZM247.94 23.7C249.652 21.579 251.981 20.042 254.604 19.3012C257.227 18.5605 260.015 18.6526 262.584 19.5648C265.153 20.477 267.375 22.1642 268.943 24.3936C270.512 26.6229 271.349 29.2842 271.34 32.01C271.34 32.5051 271.438 32.9953 271.627 33.4527C271.816 33.9101 272.094 34.3257 272.444 34.6758C272.794 35.0259 273.21 35.3036 273.667 35.493C274.125 35.6825 274.615 35.78 275.11 35.78H286.41C287.408 35.7774 288.364 35.379 289.069 34.6723C289.774 33.9655 290.17 33.0081 290.17 32.01C290.159 23.5237 286.784 15.3879 280.783 9.3872C274.782 3.38646 266.646 0.0105848 258.16 0C251.119 0.00845124 244.277 2.33368 238.689 6.6169C233.101 10.9001 229.078 16.9033 227.24 23.7H247.94Z" fill="white"/>
</svg>
